symbols/web/find_replace/materialsymbolsrounded/find_replace_wght700_40px.svg

<svg xmlns="http://www.w3.org/2000/svg" height="40" width="40"><path d="M8.458 16.333q-1.416 0-1.937-1-.521-1 .104-2.25 1.458-3.375 4.646-5.5 3.187-2.125 7.062-2.125 3.084 0 5.438 1.167 2.354 1.167 3.979 3.167v-2q0-.75.479-1.188.479-.437 1.188-.437.708 0 1.187.437.479.438.479 1.188v6.375q0 .916-.645 1.541-.646.625-1.563.625H22.5q-.667 0-1.167-.479t-.5-1.187q0-.709.5-1.167.5-.458 1.167-.458h2.167q-1.084-1.542-2.75-2.354-1.667-.813-3.584-.813-2.541 0-4.625 1.354-2.083 1.354-3.125 3.646-.291.625-.895 1.042-.605.416-1.23.416Zm23.75 18.959-6.625-6.542q-1.416 1.042-3.229 1.708-1.812.667-4.021.667-3 0-5.354-1.063Q10.625 29 8.917 27v1.875q0 .75-.479 1.187-.48.438-1.188.438t-1.188-.438q-.479-.437-.479-1.187V22.5q0-.917.646-1.542t1.563-.625h6.375q.666 0 1.166.479.5.48.5 1.188t-.5 1.167q-.5.458-1.166.458h-2.334q1.084 1.5 2.771 2.333 1.688.834 3.729.834 2.542 0 4.584-1.396 2.041-1.396 3.041-3.604.375-.625.938-1.042.562-.417 1.187-.417 1.334 0 1.917.959.583.958 0 2.125-.25.625-.562 1.187-.313.563-.688 1.063l6.583 6.583q.625.625.625 1.521 0 .896-.666 1.521-.667.666-1.563.666-.896 0-1.521-.666Z"/></svg>

<svg xmlns="http://www.w3.org/2000/svg" height="40" width="40"><path d="M8.458 16.333Q7.042 16.333 6.521 15.333Q6 14.333 6.625 13.083Q8.083 9.708 11.271 7.583Q14.458 5.458 18.333 5.458Q21.417 5.458 23.771 6.625Q26.125 7.792 27.75 9.792V7.792Q27.75 7.042 28.229 6.604Q28.708 6.167 29.417 6.167Q30.125 6.167 30.604 6.604Q31.083 7.042 31.083 7.792V14.167Q31.083 15.083 30.438 15.708Q29.792 16.333 28.875 16.333H22.5Q21.833 16.333 21.333 15.854Q20.833 15.375 20.833 14.667Q20.833 13.958 21.333 13.5Q21.833 13.042 22.5 13.042H24.667Q23.583 11.5 21.917 10.688Q20.25 9.875 18.333 9.875Q15.792 9.875 13.708 11.229Q11.625 12.583 10.583 14.875Q10.292 15.5 9.688 15.917Q9.083 16.333 8.458 16.333ZM32.208 35.292 25.583 28.75Q24.167 29.792 22.354 30.458Q20.542 31.125 18.333 31.125Q15.333 31.125 12.979 30.062Q10.625 29 8.917 27V28.875Q8.917 29.625 8.438 30.062Q7.958 30.5 7.25 30.5Q6.542 30.5 6.062 30.062Q5.583 29.625 5.583 28.875V22.5Q5.583 21.583 6.229 20.958Q6.875 20.333 7.792 20.333H14.167Q14.833 20.333 15.333 20.812Q15.833 21.292 15.833 22Q15.833 22.708 15.333 23.167Q14.833 23.625 14.167 23.625H11.833Q12.917 25.125 14.604 25.958Q16.292 26.792 18.333 26.792Q20.875 26.792 22.917 25.396Q24.958 24 25.958 21.792Q26.333 21.167 26.896 20.75Q27.458 20.333 28.083 20.333Q29.417 20.333 30 21.292Q30.583 22.25 30 23.417Q29.75 24.042 29.438 24.604Q29.125 25.167 28.75 25.667L35.333 32.25Q35.958 32.875 35.958 33.771Q35.958 34.667 35.292 35.292Q34.625 35.958 33.729 35.958Q32.833 35.958 32.208 35.292Z"/></svg>
